!!!COM: Bach, Johann Sebastian
!!!OPR: Joh. Seb. Bachs vierstimmige Choralgesänge
!!!XEN: Four-part Chorales
!!!OTL: 76. Herr, ich denk' an jene Zeit
!!!SCT: BWV 329
!!!SCA: Thematisch-systematisches Verzeichnis der musikalischen Werke Johann Sebastian Bach: Bach-Werke-Verzeichnis (Schmieder)
!!!YOR: Bach Gesellschaft Edition xxxix
!!!ENC: Steven Rasmussen
!!!CDT: 1685/3//-1750/7/28/
!!!OCY: Deutschland
!!!YEC: Copyright (c) 1994, 2000 Center for Computer Assisted Research in the Humanities
!!!YEM: Rights to all derivative editions reserved
!!!YEN: United States of America
**kern	**silbe	**kern	**silbe	**kern	**kern	**silbe
*I:[BASSO]	*I:[BASSO]	*I:[TENORE]	*I:[TENORE]	*I:[ALTO]	*I:[SOPRANO]	*I:[SOPRANO]
*clefF4	*	*clefGv2	*	*clefG2	*clefG2	*
*k[b-e-a-]	*	*k[b-e-a-]	*	*k[b-e-a-]	*k[b-e-a-]	*
*E-:	*	*E-:	*	*E-:	*E-:	*
*M4/4	*	*M4/4	*	*M4/4	*M4/4	*
=1-	=1-	=1-	=1-	=1-	=1-	=1-
4.E-	.	4G	.	4B-	4e-	Herr,
.	.	8GL	.	4B-	4e-	ich
8F	.	8A-J	.	.	.	.
4G	.	(8B-	.	4e-	4b-	denk'
.	.	4e-)	.	.	.	.
4E-	.	.	.	8gL	4b-	an
.	.	8d-	.	8fJ	.	.
=2	=2	=2	=2	=2	=2	=2
8A-L	.	8cL	.	4e-	4cc	je-
8GJ	.	8B-J	.	.	.	.
4F	.	4A-	.	4f	4dd	-ne
2E-;	.	2B-;	.	2g;	2ee-;	Zeit,
=3	=3	=3	=3	=3	=3	=3
8B-L	.	4B-	.	4f	4.dd	wenn
8A-J	.	.	.	.	.	.
4G	.	4B-	.	4b-	.	.
.	.	.	.	.	8ee-	ich
4D	.	4B-	.	8b-L	4ff	die-
.	.	.	.	8a-J	.	.
8E-L	.	4B-	.	4g	4b-	-sem
8DJ	.	.	.	.	.	.
=4	=4	=4	=4	=4	=4	=4
8CL	kur-	8B-	kur-	8gL	4ee-	kur-
8FJ	.	8An	-zen	8fJ	.	.
8BB-L	-zen	2B-	Le-	4f	4dd	-zen
8DJ	.	.	.	.	.	.
8E-L	Le-	.	.	4g	2cc	Le-
8CJ	.	.	.	.	.	.
4F	.	4A	.	8fL	.	.
.	.	.	.	8e-J	.	.
=5	=5	=5	=5	=5	=5	=5
2BB-;	-ben	2F;	-ben	2d;	2b-;	-ben
8EE-L	.	4B-	.	4g	4ee-	we-
8FFJ	.	.	.	.	.	.
8GGL	.	8B-L	.	4g	4ee-	-gen
8AA-J	.	8cJ	.	.	.	.
=6	=6	=6	=6	=6	=6	=6
8BB-L	.	4d	.	4f	4b-	mei-
8CJ	.	.	.	.	.	.
8DL	.	8dL	.	8fL	4b-	-ner
8E-J	.	8cJ	.	8gJ	.	.
8FL	.	4c	.	8gL	4a-	Sterb-
8E-J	.	.	.	8cJ	.	.
8DL	.	4B-	.	8fL	4a-	-lich-
8BB-J	.	.	.	16e-L	.	.
.	.	.	.	16dJJ	.	.
=7	=7	=7	=7	=7	=7	=7
2E-;	.	2B-;	.	2e-;	2g;	-keit
8B-L	.	8dL	.	4f	4b-	gu-
8A-J	.	8cJ	.	.	.	.
8GL	.	4B-	.	4e-	4b-	-te
8FJ	.	.	.	.	.	.
=8	=8	=8	=8	=8	=8	=8
8E-L	.	4B-	.	4f	4a-	Nacht
8DJ	.	.	.	.	.	.
4E-	.	4B-	.	8fL	4g	muss
.	.	.	.	8e-J	.	.
4AA-	.	8cL	.	4e-	2f	ge-
.	.	8F	.	.	.	.
4BB-	.	8B-	.	4d	.	.
.	.	8A-J	.	.	.	.
=9	=9	=9	=9	=9	=9	=9
2EE-;	.	2G;	.	2B-;	2e-;	-ben,
8B-L	.	4B-	.	4d	4f	wenn
8A-J	.	.	.	.	.	.
8GL	.	8B-L	.	4d	4f	ich
8FJ	.	8A-J	.	.	.	.
=10	=10	=10	=10	=10	=10	=10
4E-	.	8B-L	.	4e-	8gL	werd'
.	.	8cJ	.	.	8anJ	.
8DL	.	4d	.	8fL	4b-	auf
8E-J	.	.	.	8gJ	.	.
4F	.	8cL	.	4f	4b-	dein
.	.	8dJ	.	.	.	.
4F	.	4e-	.	4f	4a	Ge-
=11	=11	=11	=11	=11	=11	=11
2BB-;	.	2d;	.	2f;	2b-;	-bot
4A-	.	8cL	.	8fL	4cc	durch
.	.	8fJ	.	8a-J	.	.
4BBn	.	4d	.	8a-L	4dd	den
.	.	.	.	8gJ	.	.
=12	=12	=12	=12	=12	=12	=12
2C;	.	2c;	.	2g;	2ee-;	Tod
4D	.	4f	.	8fL	4b-	Al-
.	.	.	.	8a-J	.	.
4E-	.	8fL	.	8a-L	4b-	-les
.	.	8e-J	.	8gJ	.	.
=13	=13	=13	=13	=13	=13	=13
4F	.	8e-L	.	4.f	4a-	Ã¼-
.	.	16dL	.	.	.	.
.	.	16cJJ	.	.	.	.
4G	.	4B-	.	.	4g	-ber-
.	.	.	.	8e-	.	.
4A-	.	4c	.	8e-L	2f	-stre-
.	.	.	.	16dL	.	.
.	.	.	.	16cJJ	.	.
8B-L	.	8B-L	.	4d	.	.
8BB-J	.	8A-J	.	.	.	.
=14	=14	=14	=14	=14	=14	=14
1E-;	.	1G;	.	1B-;	1e-;	-ben.
==|!	==|!	==|!	==|!	==|!	==|!	==|!
*-	*-	*-	*-	*-	*-	*-
!!!RWG: Key is interpreted using the Humdrum key tool.
!!!END: 1994/06/08
!!!EMD: Converted from MuseData to Humdrum Dec 19, 2000, by Andreas Kornstaedt using muse2kern.
!!!EED: Craig Stuart Sapp
!!!EEV: 2024/03/31
!!!ONB: Some non-unicode characters
!!!filter-keyboard: satb2gs
